!!!!SEGMENT: pl-kk--kk-i-307_anonim--vere-languores.krn
!!!cenid: 17xx:2107
!!!COM: Anonim
!!!COM-rismID: pe30004985
!!!CDT:
!!!CNT:
!!!OTL: Vere languores
!!!PDT:
!!!AGN: Sacred
!!!SMS-siglum: PL-Kk
!!!SMS-shelfmark: Kk.I.307
!!!SMS-shelfwork: W
!!!SMS-variant:
!!!SMS-altvar:
!!!NIFC-rismSourceID: 1001147326
!!!NIFC-islandoraID: pl-kk:5195
!!!URL-pdf-islandora: https://repozytorium.nifc.pl/islandora/object/pl-kk%3A5195/datastream/PDF/view
!!!URL-scan: https://polish.musicsources.pl/pl/lokalizacje/galeria/rekopisy/5926 @EN{Scan on Polish Music Sources Website} @PL{Skany w portalu Dziedzictwo Muzyki Polskiej w otwartym dostępie}
!!!ONB-nifc:
!!!AIN: 1 alto 1 empty 2 tenor
!!!key:
**kern	**text	**text	**kern	**text	**kern	**text	**kern	**text
*part4	*part4	*part4	*part3	*part3	*part2	*part2	*part1	*part1
*staff4	*staff4	*staff4	*staff3	*staff3	*staff2	*staff2	*staff1	*staff1
*group1	*	*	*group1	*	*group1	*	*group1	*
*Iempty	*	*	*Itenor	*	*Itenor	*	*Ialto	*
*I"Baſso.	*	*	*I"Tenore 2do	*	*I"Tenore 1mo	*	*I"Alto.	*
*I'B	*	*	*I'T 2	*	*I'T 1	*	*I'A	*
*clefF4	*	*	*clefC4	*	*clefC4	*	*clefC3	*
*k[b-]	*	*	*k[b-]	*	*k[b-]	*	*k[b-]	*
*F:	*	*	*F:	*	*F:	*	*F:	*
*M2/1	*	*	*M2/1	*	*M2/1	*	*M2/1	*
*met(C|)	*	*	*met(C|)	*	*met(C|)	*	*met(C|)	*
=1-	=1-	=1-	=1-	=1-	=1-	=1-	=1-	=1-
*2\right	*	*	*2\right	*	*2\right	*	*	*
!LO:TX:t=P:problem=przy kluczu B- BB-	!	!	!	!	!	!	!	!
2F\	Ve-	.	2c\	Ve-	2A\	Ve-	0r	.
2F\	-re	.	2c\	-re	2A\	-re	.	.
*	*ij	*	*	*ij	*	*ij	*	*
2B-\	Ve-	.	2d\	Ve-	2B-\	Ve-	.	.
!LO:TX:t=P:problem=kreska pseudotaktowa	!	!	!LO:TX:t=P:problem=kreska pseudotaktowa	!	!LO:TX:t=P:problem=kreska pseudotaktowa	!	!	!
2BB-/	-re	.	2d\	-re	2B-\	-re	.	.
*	*Xij	*	*	*Xij	*	*Xij	*	*
=2-	=2-	=2-	=2-	=2-	=2-	=2-	=2-	=2-
2.F\	lan-	.	2c\	lan-	2B-\	lan-	1r	.
.	.	.	1c	-gvo-	4A/	.	.	.
4E\	.	.	.	.	4G/	.	.	.
!LO:TX:t=P:problem=kreska pseudotaktowa	!	!	!	!	!	!	!	!
*	*	*	*	*	*	*	*2\right	*
1D	-gvo-	.	.	.	2A/	-gvo-	2f\	Ve-
!	!	!	!LO:TX:t=P:problem=kreska pseudotaktowa	!	!LO:TX:t=P:problem=kreska pseudotaktowa	!	!	!
.	.	.	2B-\	-res	2F/	-res	2F/	-re
=3-	=3-	=3-	=3-	=3-	=3-	=3-	=3-	=3-
*	*	*	*	*	*	*	*	*ij
2C,</	-res,	.	2c,<\	nos-	2G/	lan-	2f\	Ve-
2C/	lan-	.	2c\	-tros	(2F/	-gvo-	4e\	-re
*	*	*	*	*ij	*	*	*	*Xij
.	.	.	.	.	.	.	4d\	lan-
2C/	-gvo-	.	2c\	nos-	2G/)	.	2e\	-gvo-
!LO:TX:t=P:problem=kreska pseudotaktowa	!	!	!LO:TX:t=P:problem=kreska pseudotaktowa	!	!LO:TX:t=P:problem=kreska pseudotaktowa	!	!LO:TX:t=P:problem=kreska pseudotaktowa	!
2C/	-res	.	2c\	-tros	2A/	-res	2c\	-res
*	*	*	*	*Xij	*	*	*	*
=4-	=4-	=4-	=4-	=4-	=4-	=4-	=4-	=4-
2.BB-/	nos-	.	2f\	tu-	2B-\	nos-	2d\	nos-
!	!	!	!	!	!LO:TX:t=P:problem=kreska pseudotaktowa	!	!	!
.	.	.	2F/	-lit	2B-\	-tros	2c\	-tros
4AA/	-tros	.	.	.	.	.	.	.
*	*	*	*	*	*	*	*	*ij
(2GG/	tu-	[[lan-	2B-\	nos-	2rG	.	2d\	nos-
!	!	!	!LO:TX:t=P:problem=kreska pseudotaktowa	!	!	!	!LO:TX:t=P:problem=kreska pseudotaktowa	!
2G\)	.	-gvo-	2B-\	-tros	4G/	nos-	2e\	-tros
*	*	*	*	*	*	*	*	*Xij
.	.	.	.	.	4G,</	-tros,	.	.
=5-	=5-	=5-	=5-	=5-	=5-	=5-	=5-	=5-
!LO:TX:t=P:problem=kreska pseudotaktowa	!	!	!	!	!LO:TX:t=P:problem=kreska pseudotaktowa	!	!	!
1F	-lit	-res]]	2c\	tu-	1A	lu-	2f\	tu-
!	!	!	!LO:TX:t=P:problem=kreska pseudotaktowa	!	!	!	!	!
.	.	.	2c\	-lit	.	.	2c\	-lit
!	!	!	!	!	!LO:LB:g=original	!	!	!
2F\	et	.	2rF	.	2A,<\	-lit	2c\	et
*custos:B	*	*	*	*	*	*	*	*
!	!	!	!	!	!	!	!LO:TX:t=P:problem=kreska pseudotaktowa	!
2F\	do-	.	4F/	et	4A\	et	2c\	do-
!	!	!	!LO:TX:t=P:problem=kreska pseudotaktowa	!	!	!	!	!
.	.	.	4F/	do-	4A\	do-	.	.
!LO:LB:g=original	!	!	!LO:LB:g=original	!	!	!	!	!
=6-	=6-	=6-	=6-	=6-	=6-	=6-	=6-	=6-
!	!	!	!	!	!LO:TX:t=P:problem=kreska pseudotaktowa	!	!	!
2B-\	-lo-	.	2F/	-lo-	1B-	-lo-	1d	-lo-
2BB-/	-res	.	2G/	.	.	.	.	.
1C	nos-	.	2G/	.	2G/	-res	2e,<\	-res
!	!	!	!LO:TX:t=P:problem=kreska pseudotaktowa	!	!	!	!LO:TX:t=P:problem=kreska pseudotaktowa	!
.	.	.	2E/	-res	2A/	nos-	2c\	no-
!	!	!	!	!	!	!	!LO:LB:g=original	!
=7-	=7-	=7-	=7-	=7-	=7-	=7-	=7-	=7-
2D,</	-tros	.	2F/	nos-	2G/	-tros	2c\	-stros
!LO:TX:t=P:problem=kreska pseudotaktowa	!	!	!LO:TX:t=P:problem=kreska pseudotaktowa	!	!	!	!	!
2D/	no-	.	2F/	-tros	2F/	por-	2B-/	I-
*	*	*	*	*ij	*	*	*	*
1C	.	.	1G	nos-	(>2F/	-ta-	2c\	-pse
.	.	.	.	.	2E/)	.	2c\	por-
=8-	=8-	=8-	=8-	=8-	=8-	=8-	=8-	=8-
!	!	!	!	!	!LO:TX:t=P:problem=kreska pseudotaktowa	!	!	!
2F,<\	-stros,	.	2A,</	-tros,	1F	-vit	1c	-ta-
*	*	*	*	*Xij	*	*	*	*
!	!	!	!LO:TX:t=P:problem=kreska pseudotaktowa	!	!	!	!	!
2F\	I-	.	2A/	I-	.	.	.	.
!	!	!	!	!	!	!	!LO:TX:t=P:problem=kreska pseudotaktowa	!
2F\	-pse	.	2A/	-pse	2r	.	1c	-vit
!LO:TX:t=P:problem=kreska pseudotaktowa	!	!	!	!	!	!	!	!
2E\	por-	.	2G/	por-	2c\	I-	.	.
=9-	=9-	=9-	=9-	=9-	=9-	=9-	=9-	=9-
(2F\	-ta-	.	2A/	-ta-	2c\	-pse	2r	.
2D\)	.	.	2F/	.	2B-\	por-	2F/	por-
!LO:TX:t=P:problem=kreska pseudotaktowa	!	!	!	!	!LO:TX:t=P:problem=kreska pseudotaktowa	!	!	!
1C	-vit	.	1G	-vit	1c	-ta-	4f\	-ta-
.	.	.	.	.	.	.	4e\	.
.	.	.	.	.	.	.	4e\	.
!	!	!	!	!	!	!	!LO:TX:t=P:problem=kreska pseudotaktowa	!
.	.	.	.	.	.	.	4d\	.
=10-	=10-	=10-	=10-	=10-	=10-	=10-	=10-	=10-
(>2D/	I-	.	1r	.	2A,<\	-vit,	2f,<\	-vit,
2BB-/)	.	.	.	.	2B-\	por-	2d\	por-
2F,<\	-pse	.	2r	.	(2B-\	-ta-	2c\	-ta-
!LO:TX:t=P:problem=kreska pseudotaktowa	!	!	!LO:TX:t=P:problem=kreska pseudotaktowa	!	!LO:TX:t=P:problem=kreska pseudotaktowa	!	!	!
2F\	por-	.	2c\	por-	2A\)	.	4f\	-vit
!	!	!	!	!	!	!	!LO:TX:t=P:problem=kreska pseudotaktowa	!
.	.	.	.	.	.	.	4f\	por-
!	!	!	!	!	!LO:LB:g=original	!	!	!
=11-	=11-	=11-	=11-	=11-	=11-	=11-	=11-	=11-
1C	-ta-	.	2c\	-ta-	1G	.	(2f\	-ta-
.	.	.	4c\	-vit	.	.	2e\)	.
.	.	.	4c\	por-	.	.	.	.
2AA,</	-vit	.	2c\	-ta-	2A,</	-vit	2e\	-vit
!LO:TX:t=P:problem=kreska pseudotaktowa	!	!	!LO:TX:t=P:problem=kreska pseudotaktowa	!	!	!	!	!
2BB-/	por-	.	2B-\	-vit	2F/	et	1d\	et
!LO:LB:g=original	!	!	!LO:LB:g=original	!	!	!	!	!
=12-	=12-	=12-	=12-	=12-	=12-	=12-	=12-	=12-
(2GG/	-ta-	.	2B-\	et	2F/	nos	.	.
!	!	!	!	!	!LO:TX:t=P:problem=kreska pseudotaktowa	!	!	!
2G\)	.	.	2B-\	nos	2E/	pu-	(<2G/	nos
!	!	!	!	!	!	!	!LO:TX:t=P:problem=kreska pseudotaktowa	!
2F,<\	-vit	.	2B-\	et	2.F/	-ta-	1c)	.
1F\	et	.	4A\	nos	.	.	.	.
!	!	!	!LO:TX:t=P:problem=kreska pseudotaktowa	!	!	!	!	!
.	.	.	4A\	pu-	4F/	-vi-	.	.
!	!	!	!	!	!	!	!LO:LB:g=original	!
=13-	=13-	=13-	=13-	=13-	=13-	=13-	=13-	=13-
!	!	!	!	!	!LO:TX:t=P:problem=kreska pseudotaktowa	!	!	!
.	.	.	2.G/	-ta-	1c	-mus	2r	.
!LO:TX:t=P:problem=kreska pseudotaktowa	!	!	!	!	!	!	!	!
2E\	nos	.	.	.	.	.	2c\	et
.	.	.	4G/	-vi-	.	.	.	.
!	!	!	!LO:TX:t=P:problem=kreska pseudotaktowa	!	!	!	!	!
1D	pu-	.	1F	-mus	2rG	.	2c\	nos
.	.	.	.	.	2F/	pu-	2B-/	pu-
=14-	=14-	=14-	=14-	=14-	=14-	=14-	=14-	=14-
(>2.C/	-ta-	.	2r	.	2F/	-ta-	2A/	-ta-
!	!	!	!	!	!LO:TX:t=P:problem=kreska pseudotaktowa	!	!LO:TX:t=P:problem=kreska pseudotaktowa	!
.	.	.	2c\	pu-	2E/	.	2G/	.
4BB-/)	.	.	.	.	.	.	.	.
2AA/	.	.	2c\	-ta-	2F/	.	2A/	.
2GG/	-vi-	.	4B-\	-vi-	4G/	-vi-	4B-/	-vi-
!	!	!	!LO:TX:t=P:problem=kreska pseudotaktowa	!	!	!	!LO:TX:t=P:problem=kreska pseudotaktowa	!
.	.	.	4B-\	-mus	4G,</	-mus,	4B-/	-mus
=15-	=15-	=15-	=15-	=15-	=15-	=15-	=15-	=15-
!LO:TX:t=P:problem=kreska pseudotaktowa	!	!	!	!	!	!	!	!
1FF	-mus	.	2A/	E-	2A/	E-	1c	E-
!	!	!	!	!	!LO:TX:t=P:problem=kreska pseudotaktowa	!	!	!
.	.	.	2G/	.	2F/	-um	.	.
!	!	!	!	!	!	!	!LO:TX:t=P:problem=kreska pseudotaktowa	!
2rC	.	.	2F/	.	2A/	pu-	1c	-um
!	!	!	!LO:TX:t=P:problem=kreska pseudotaktowa	!	!	!	!	!
2C/	E-	.	2E/	.	2G/	-ta-	.	.
=16-	=16-	=16-	=16-	=16-	=16-	=16-	=16-	=16-
1D	.	.	2F/	.	4F/	-vi-	(>2A/	pu-
.	.	.	.	.	4F/	-mus	.	.
!	!	!	!	!	!LO:TX:t=P:problem=kreska pseudotaktowa	!	!	!
.	.	.	2D/	.	2F/	E-	2B-/)	.
!LO:TX:t=P:problem=kreska pseudotaktowa	!	!	!	!	!LO:LB:g=original	!	!	!
1C	.	.	2G,</	-um	4F/	.	2c\	-ta-
.	.	.	.	.	8E/L	.	.	.
.	.	.	.	.	8D/J	.	.	.
!	!	!	!LO:TX:t=P:problem=kreska pseudotaktowa	!	!	!	!	!
.	.	.	2G/	qua-	2E/	.	4c\	-vi-
.	.	.	.	.	.	.	4c\	-m(us)
!	!	!	!LO:LB:g=original	!	!	!	!	!
=17-	=17-	=17-	=17-	=17-	=17-	=17-	=17-	=17-
!	!	!	!	!	!LO:TX:t=P:problem=kreska pseudotaktowa	!	!	!
2FF,</	-um	.	2A\	-si	1F	-um	1c	E-
2F\	qua-	.	2A\	le-	.	.	.	.
!	!	!	!	!	!	!	!LO:TX:t=P:problem=kreska pseudotaktowa	!
2F\	-si	.	2A\	-pro-	2r	.	1c	-um
2F\	Le-	.	4A\	-sum,	2c\	qua-	.	.
.	.	.	4A,<\	le-	.	.	.	.
=18-	=18-	=18-	=18-	=18-	=18-	=18-	=18-	=18-
2E\	-pro-	.	2G/	-pro-	2c\	-si	0r	.
!LO:TX:t=P:problem=kreska pseudotaktowa	!	!	!LO:TX:t=P:problem=kreska pseudotaktowa	!	!	!	!	!
2C/	-sum	.	2G/	-sum	2c\	le-	.	.
!LO:LB:g=original	!	!	!	!	!	!	!	!
(2D\	le-	.	2r	.	2B-\	-pro-	.	.
2E\)	.	.	2c\	qua-	4G,</	-sum,	.	.
.	.	.	.	.	4G/	le-	.	.
=19-	=19-	=19-	=19-	=19-	=19-	=19-	=19-	=19-
2.F\	-pro-	.	2c\	-si	1A	-pro-	2r	.
!	!	!	!LO:TX:t=P:problem=kreska pseudotaktowa	!	!	!	!LO:TX:t=P:problem=kreska pseudotaktowa	!
.	.	.	2c\	le-	.	.	2f\	qua-
4E\	.	.	.	.	.	.	.	.
!	!	!	!	!	!LO:TX:t=P:problem=kreska pseudotaktowa	!	!LO:LB:g=original	!
1D	.	.	2B-\	-pro-	1F	-sum	2f\	-si
.	.	.	4A,<\	-sum,	.	.	2f\	le-
.	.	.	4A\	le-	.	.	.	.
=20-	=20-	=20-	=20-	=20-	=20-	=20-	=20-	=20-
!LO:TX:t=P:problem=kreska pseudotaktowa	!	!	!	!	!	!	!	!
1C	-sum	.	2c\	-pro-	2G/	et	2e\	-pro-
!	!	!	!LO:TX:t=P:problem=kreska pseudotaktowa	!	!	!	!LO:TX:t=P:problem=kreska pseudotaktowa	!
.	.	.	2c\	-sum	2G/	per-	2c\	-sum
!	!	!	!LO:N:acc=#	!	!LO:TX:t=P:problem=kreska pseudotaktowa	!	!	!
1r	.	.	2Bn\	et	1G	-cuſ-	(2d\	et
.	.	.	2B\	per-	.	.	2e\)	.
=21-	=21-	=21-	=21-	=21-	=21-	=21-	=21-	=21-
2r	.	.	2c\	-cuſ-	2F,</	-sum	4f\	per-
.	.	.	.	.	.	.	4e\	.
1BB-	et	.	1F	-sum	1B-	et	4d\	.
!	!	!	!	!	!	!	!LO:TX:t=P:problem=kreska pseudotaktowa	!
.	.	.	.	.	.	.	4c\	.
.	.	.	.	.	.	.	2d\	-cuſ-
!	!	!	!LO:TX:t=P:problem=kreska pseudotaktowa	!	!LO:TX:t=P:problem=kreska pseudotaktowa	!	!	!
2F\	per-	.	2F/	per-	2A\	per-	2c\	.
!	!	!	!LO:LB:g=original	!	!	!	!	!
=22-	=22-	=22-	=22-	=22-	=22-	=22-	=22-	=22-
2G\	-cuſ-	.	1D	-cuſ-	2.G/	-cuſ-	2c\	.
!	!	!	!	!	!	!	!LO:TX:t=P:problem=kreska pseudotaktowa	!
!LO:TX:t=P:problem=kreska pseudotaktowa	!	!	!	!	!	!	!LO:N:acc=#	!
2GG/	.	.	.	.	.	.	2BnX/	.
.	.	.	.	.	4F/	.	.	.
!	!	!	!	!	!LO:LB:g=original	!	!	!
2AA/	.	.	4C/	-sum	2E,</	-sum	2c,<\	-sum,
.	.	.	4C/	per-	.	.	.	.
!	!	!	!LO:TX:t=P::problem=kreska pseudotaktowa&colon;między nutą a kropką	!	!	!	!	!
4FF/	.	.	2.F/	-cuſ-	2A\	per-	2c\	per-
4GG/	.	.	.	.	.	.	.	.
=23-	=23-	=23-	=23-	=23-	=23-	=23-	=23-	=23-
!	!	!	!	!	!LO:TX:t=P:problem=kreska pseudotaktowa	!	!	!
4AA/	.	.	.	.	1G	-cuſ-	2c\	-cuſ-
4BB-/	.	.	8E/L	.	.	.	.	.
.	.	.	8D/J	.	.	.	.	.
!LO:TX:t=P:problem=kreska pseudotaktowa	!	!	!LO:TX:t=P:problem=kreska pseudotaktowa	!	!	!	!	!
2C/	.	.	2E/	.	.	.	4c\	-s(um),
.	.	.	.	.	.	.	4c\	per-
2FF,</	-sum	.	1F	-sum	2A,<\	-sum	1c	-cuſ-
*	*	*	*	*	*	*ij	*	*
2F\	p(er)-	.	.	.	2A\	per-	.	.
=24-	=24-	=24-	=24-	=24-	=24-	=24-	=24-	=24-
!	!	!	!	!	!	!	!LO:TX:t=P:problem=kreska pseudotaktowa	!
2F\	-cuſ-	.	1r	.	2A\	-cuſ-	1c	-sum
!	!	!	!	!	!LO:TX:t=P:problem=kreska pseudotaktowa	!	!	!
2F,<\	-s(um),	.	.	.	2A\	-sum	.	.
*	*	*	*	*	*	*Xij	*	*
!	!	!	!	!	!	!	!LO:LB:g=original	!
(2D\	a	.	2r	.	(<2B-\	a-	1r	.
2E\)	.	.	2c\	a	2G/)	.	.	.
=25-	=25-	=25-	=25-	=25-	=25-	=25-	=25-	=25-
!LO:TX:t=P:problem=kreska pseudotaktowa	!	!	!	!	!	!	!	!
1F	DE-	.	1c	DE-	1A	-De-	2r	.
!	!	!	!	!	!	!	!LO:TX:t=P:problem=kreska pseudotaktowa	!
.	.	.	.	.	.	.	2f\	a
!LO:LB:g=original	!	!	!	!	!LO:TX:t=P:problem=kreska pseudotaktowa	!	!	!
2F,<\	-o	.	2d\	-o	1A	-o	2f\	DE-
!	!	!	!LO:TX:t=P:problem=kreska pseudotaktowa	!	!	!	!	!
2F\	a	.	2c\	a	.	.	4f\	-O
.	.	.	.	.	.	.	4f\	a
=26-	=26-	=26-	=26-	=26-	=26-	=26-	=26-	=26-
1G	De-	.	1B-y	DE-	(<2B-\	a	2.d\	DE-
.	.	.	.	.	2G/)	.	.	.
!	!	!	!	!	!	!	!LO:TX:t=P:problem=kreska pseudotaktowa	!
.	.	.	.	.	.	.	4e\	.
!LO:TX:t=P:problem=kreska pseudotaktowa	!	!	!	!	!	!	!	!
1F	-o	.	4c\	.	(2A\	De-	2f\	-O
.	.	.	4B-\	.	.	.	.	.
.	.	.	4A\	.	2c\)	.	2f\	a
.	.	.	4G\	.	.	.	.	.
=27-	=27-	=27-	=27-	=27-	=27-	=27-	=27-	=27-
!	!	!	!	!	!LO:TX:t=P:problem=kreska pseudotaktowa	!	!	!
0r	.	.	1A	.	1c	-o	4f\	DE-
.	.	.	.	.	.	.	4e\	.
.	.	.	.	.	.	.	4e\	.
.	.	.	.	.	.	.	8d\L	.
!	!	!	!	!	!	!	!LO:TX:t=P:problem=kreska pseudotaktowa	!
.	.	.	.	.	.	.	8c\J	.
!	!	!	!LO:TX:t=P:problem=kreska pseudotaktowa	!	!	!	!	!
.	.	.	1G	-o	2c\	De-	1d	.
!	!	!	!	!	!LO:N:acc=#	!	!	!
.	.	.	.	.	2Bn\	-o	.	.
!	!	!	!	!	!LO:LB:g=original	!	!	!
=28-	=28-	=28-	=28-	=28-	=28-	=28-	=28-	=28-
1r	.	.	2c\	et	2.c\	et	1e	-O.
.	.	.	2c\	hu-	.	.	.	.
.	.	.	.	.	4B-y\	hu-	.	.
!	!	!	!LO:LB:g=original	!	!	!	!	!
(2F\	hu-	.	2C/	-mi-	2A\	-mi-	00r	.
2FF/)	.	.	2D/	-li-	4A\	-li-	.	.
.	.	.	.	.	4A\	-a-	.	.
=29-	=29-	=29-	=29-	=29-	=29-	=29-	=29-	=29-
2.GG/	-mi-	.	2E/	-a-	2G/	-a-	.	.
!	!	!	!LO:TX:t=P:problem=kreska pseudotaktowa	!	!LO:TX:t=P:problem=kreska pseudotaktowa	!	!	!
.	.	.	2F/	.	2c\	-lum	.	.
4AA/	-li-	.	.	.	.	.	.	.
!LO:TX:t=P:problem=kreska pseudotaktowa	!	!	!	!	!	!	!	!
1BB-	-a-	.	4F/	.	2rF	.	.	.
.	.	.	4E/	.	.	.	.	.
.	.	.	4D/	.	2F/	hu-	.	.
.	.	.	4C/	.	.	.	.	.
=30-	=30-	=30-	=30-	=30-	=30-	=30-	=30-	=30-
2B-\	.	.	4D/	.	4G/	-mi-	.	.
.	.	.	4E/	.	4G/	-li-	.	.
!	!	!	!LO:TX:t=P::problem=kreska pseudotaktowa&colon;między nutą a kropką	!	!LO:TX:t=P:problem=kreska pseudotaktowa	!	!	!
2A\	.	.	2.F/	.	2A/	-a-	.	.
1G	.	.	.	.	2B-,<\	-tum,	1r	.
.	.	.	8E/L	.	.	.	.	.
.	.	.	8D/J	.	.	.	.	.
!	!	!	!LO:TX:t=P:problem=kreska pseudotaktowa	!	!	!	!	!
.	.	.	2E/	.	2G/	I-	.	.
=31-	=31-	=31-	=31-	=31-	=31-	=31-	=31-	=31-
2F,<\	-tum	.	2F,</	-tum	2A\	-pse	2c\	I-
!	!	!	!LO:TX:t=P:problem=kreska pseudotaktowa	!	!LO:TX:t=P:problem=kreska pseudotaktowa	!	!	!
(2FF/	I-	.	2A/	I-	2A\	au-	2c\	-pse
2F\)	.	.	2A/	-pse,	2F,</	-tem	2d\	au-
!LO:TX:t=P:problem=kreska pseudotaktowa	!	!	!	!	!	!	!LO:TX:t=P:problem=kreska pseudotaktowa	!
2E\	-pse	.	2G,</	.	2c\	vul-	2e\	-tem
!	!	!	!	!	!	!	!LO:LB:g=original	!
=32-	=32-	=32-	=32-	=32-	=32-	=32-	=32-	=32-
1D	au-	.	2F/	au-	2c\	-ne-	2f\	vul-
!	!	!	!LO:TX:t=P:problem=kreska pseudotaktowa	!	!	!	!	!
.	.	.	2F/	-tem	2B-\	-ra-	2d\	-ne-
!	!	!	!	!	!LO:TX:t=P:problem=kreska pseudotaktowa	!	!	!
2C/	-tem	.	2G/	vul-	1c	-tus	2e\	-ra-
!	!	!	!	!	!	!	!LO:TX:t=P:problem=kreska pseudotaktowa	!
1C/	vul-	.	2E/	-ne-	.	.	2e\	-tus
=33-	=33-	=33-	=33-	=33-	=33-	=33-	=33-	=33-
.	.	.	2E/	-ra-	2G/	vul-	1r	.
!LO:TX:t=P:problem=kreska pseudotaktowa	!	!	!	!	!LO:TX:t=P:problem=kreska pseudotaktowa	!	!	!
2BB-/	-ne-	.	2D/	-tus	2G/	-ne-	.	.
!LO:LB:g=original	!	!	!LO:LB:g=original	!	!LO:LB:g=original	!	!	!
2.AA/	-ra-	.	2C/	vul-	2G/	-ra-	2r	.
.	.	.	2C/	-ne-	2F/	-tus	1c\	vul-
4AA/	-tus	.	.	.	.	.	.	.
=34-	=34-	=34-	=34-	=34-	=34-	=34-	=34-	=34-
!LO:TX:t=P:problem=kreska pseudotaktowa	!	!	!	!	!LO:TX:t=P:problem=kreska pseudotaktowa	!	!	!
1GG	est	.	2D/	-ra-	1G	est	.	.
!	!	!	!LO:TX:t=P:problem=kreska pseudotaktowa	!	!	!	!	!
.	.	.	2D/	-tus	.	.	2B-y/	-ne-
2AA/	p(ro)-	.	1C	est	(>2E/	pro-	2A/	-ra-
!	!	!	!	!	!	!	!LO:TX:t=P:problem=kreska pseudotaktowa	!
2FF/	-p(te)r	.	.	.	2F/)	.	2A/	-tus
=35-	=35-	=35-	=35-	=35-	=35-	=35-	=35-	=35-
2.C/	i-	.	2rF	.	2F/	-pter	2G,</	pro-
!	!	!	!LO:TX:t=P:problem=kreska pseudotaktowa	!	!LO:TX:t=P:problem=kreska pseudotaktowa	!	!	!
.	.	.	2G/	pro-	2E/	i-	2c\	-p(te)r
4BB-/	.	.	.	.	.	.	.	.
2AA/	-ni-	.	2A/	-p(te)r	2F/	-ni-	(2c\	i-
!LO:TX:t=P:problem=kreska pseudotaktowa	!	!	!	!	!	!	!LO:TX:t=P:problem=kreska pseudotaktowa	!
2BB-/	-qui-	.	2F/	i-	2F/	-qui-	2d\)	.
=36-	=36-	=36-	=36-	=36-	=36-	=36-	=36-	=36-
(2GG/	-ta-	.	2F/	-ni-	1G	-ta-	2B-/	-ni-
!	!	!	!LO:TX:t=P:problem=kreska pseudotaktowa	!	!	!	!	!
2G\)	.	.	2E/	-qui-	.	.	2B-/	-qui-
!LO:TX:t=P:problem=kreska pseudotaktowa	!	!	!	!	!LO:TX:t=P:problem=kreska pseudotaktowa	!	!	!
1F	-tes	.	2F/	-ta-	1c	-tes	2A/	-ta-
.	.	.	2F/	-tes	.	.	2A/	-tes
=37-	=37-	=37-	=37-	=37-	=37-	=37-	=37-	=37-
!	!	!	!LO:TX:t=P:problem=kreska pseudotaktowa	!	!	!	!LO:TX:t=P:problem=kreska pseudotaktowa	!
(2F\	no-	.	1r	.	4c\	nos-	0r	.
.	.	.	.	.	4B-\	.	.	.
2FF/)	.	.	.	.	4A\	.	.	.
.	.	.	.	.	4G\	.	.	.
2F\	-stras	.	1c	at	2A/	-tras	.	.
!LO:TX:t=P:problem=kreska pseudotaktowa	!	!	!	!	!LO:TX:t=P:problem=kreska pseudotaktowa	!	!	!
2E\	at	.	.	.	2G/	.	.	.
!	!	!	!	!	!	!	!LO:LB:g=original	!
=38-	=38-	=38-	=38-	=38-	=38-	=38-	=38-	=38-
2.D\	tri-	.	2c\	tri-	1F	at-	2r	.
.	.	.	2B-\	-tus	.	.	2f\	at-
4D\	-tus	.	.	.	.	.	.	.
!LO:TX:t=P:problem=kreska pseudotaktowa	!	!	!	!	!	!	!	!
1C	est	.	(>2A/	est	2c\	-tri-	2f\	-tri-
*	*	*	*custos:G	*	*custos:d	*	*	*
!	!	!	!LO:TX:t=P:problem=kreska pseudotaktowa	!	!LO:TX:t=P:problem=kreska pseudotaktowa	!	!	!
.	.	.	2G/)	.	2c\	-tus	2e\	-tus
!	!	!	!LO:PB:g=original	!	!LO:PB:g=original	!	!	!
=39-	=39-	=39-	=39-	=39-	=39-	=39-	=39-	=39-
2BB-/	pro-	.	2G/	pro-	4d\	est	2d,<\	est
.	.	.	.	.	4c\	.	.	.
!	!	!	!LO:TX:t=P:problem=kreska pseudotaktowa	!	!	!	!	!
2BB-/	-p(te)r	.	2F/	-p(te)r	4B-\	.	2d\	pro-
.	.	.	.	.	4A\	.	.	.
!LO:LB:g=original	!	!	!	!	!	!	!LO:TX:t=P:problem=kreska pseudotaktowa	!
2.C/	sce-	.	4F/	sce-	2G,</	.	1c	-pter
.	.	.	8E/L	.	.	.	.	.
.	.	.	8D/J	.	.	.	.	.
!	!	!	!	!	!LO:TX:t=P:problem=kreska pseudotaktowa	!	!	!
.	.	.	4.E/	.	2G/	pro-	.	.
4C/	-le-	.	.	.	.	.	.	.
!	!	!	!LO:TX:t=P:problem=kreska pseudotaktowa	!	!	!	!	!
.	.	.	8E/	-le-	.	.	.	.
=40-	=40-	=40-	=40-	=40-	=40-	=40-	=40-	=40-
2F\	-ra	.	1F,<	-ra	2F/	-p(te)r	2A/	sce-
!LO:TX:t=P:problem=kreska pseudotaktowa	!	!	!	!	!	!	!	!
2BB-/	.	.	.	.	2D/	sce-	4B-/	-le-
.	.	.	.	.	.	.	4B-/	-ra
2BB-/	nos-	.	2F/	nos-	4D/	-le-	2B-/	nos-
.	.	.	.	.	4D/	-ra	.	.
!	!	!	!LO:TX:t=P:problem=kreska pseudotaktowa	!	!LO:TX:t=P:problem=kreska pseudotaktowa	!	!LO:TX:t=P:problem=kreska pseudotaktowa	!
2AA,</	-tra	.	2F/	-tra	2A/	nos-	2c/	-tra
=41-	=41-	=41-	=41-	=41-	=41-	=41-	=41-	=41-
2BB-/	Di-	.	2F/	Di-	2G,</	-tra	2d\	Dis-
2C/	-sci-	.	2E/	-sci-	2G/	Di-	2c\	-ci-
2D\	-pli-	.	2F/	-pli-	2F/	-sci-	2c\	-pli-
!LO:TX:t=P:problem=kreska pseudotaktowa	!	!	!LO:TX:t=P:problem=kreska pseudotaktowa	!	!LO:TX:t=P:problem=kreska pseudotaktowa	!	!	!
2D\	-na	.	2D/	-na	2F/	-pli-	2B-/	-na
=42-	=42-	=42-	=42-	=42-	=42-	=42-	=42-	=42-
4C/	pa-	.	1E	pa-	2G/	-na	1c	pa-
4BB-/	.	.	.	.	.	.	.	.
4AA/	.	.	.	.	2A/	pa-	.	.
4GG/	.	.	.	.	.	.	.	.
!	!	!	!	!	!	!	!LO:TX:t=P:problem=kreska pseudotaktowa	!
4FF/	.	.	1F	.	4A/	.	1c	-cis
4GG/	.	.	.	.	4G/	.	.	.
!LO:TX:t=P:problem=kreska pseudotaktowa	!	!	!	!	!LO:TX:t=P:problem=kreska pseudotaktowa	!	!	!
2AA/	.	.	.	.	2F/	.	.	.
!	!	!	!	!	!	!	!LO:PB:g=original	!
=43-	=43-	=43-	=43-	=43-	=43-	=43-	=43-	=43-
2GG/	-cis	.	2G,</	-cis	2F,</	-cis,	1B-	no-
2G\	nos-	.	2G/	nos-	2E/	pa-	.	.
!LO:TX:t=P:problem=kreska pseudotaktowa	!	!	!LO:TX:t=P:problem=kreska pseudotaktowa	!	!	!	!LO:TX:t=P:problem=kreska pseudotaktowa	!
1F	-trae	.	1c	-tra	2F/	-cis	1A	-strae
.	.	.	.	.	2F/	no-	.	.
=44-	=44-	=44-	=44-	=44-	=44-	=44-	=44-	=44-
2r	.	.	2c\	su-	2E/	.	1r	.
!	!	!	!	!	!LO:TX:t=P:problem=kreska pseudotaktowa	!	!	!
1F	su-	.	2B-\	-per	2D/	.	.	.
!	!	!	!	!	!LO:TX:t=P:problem=kreska pseudotaktowa	!	!	!
!	!	!	!LO:LB:g=original	!	!LO:LB:g=original	!	!	!
.	.	.	2A\	E-	1C	-strae	2rA	.
2E\	-per	.	2G/	.	.	.	4c\	su-
.	.	.	.	.	.	.	4c\	-per
=45-	=45-	=45-	=45-	=45-	=45-	=45-	=45-	=45-
!	!	!	!LO:TX:t=P:problem=kreska pseudotaktowa	!	!	!	!	!
1D	E-	.	1F	-um	2rF	.	2c\	E-
!	!	!	!	!	!	!	!LO:TX:t=P:problem=kreska pseudotaktowa	!
.	.	.	.	.	1F	su-	2B-/	-um
!LO:TX:t=P:problem=kreska pseudotaktowa	!	!	!	!	!	!	!	!
1C	-um	.	2.c\	et	.	.	2A/	et
!	!	!	!	!	!LO:TX:t=P:problem=kreska pseudotaktowa	!	!	!
.	.	.	.	.	2E/	-per	2G/	li-
.	.	.	4B-\	.	.	.	.	.
!LO:PB:g=original	!	!	!	!	!	!	!	!
=46-	=46-	=46-	=46-	=46-	=46-	=46-	=46-	=46-
2r	.	.	2A\	li-	2.F/	E-	2F/	-vo-
!	!	!	!LO:TX:t=P:problem=kreska pseudotaktowa	!	!	!	!LO:TX:t=P:problem=kreska pseudotaktowa	!
2BB-/	et	.	2d\	.	.	.	2B-/	-re
.	.	.	.	.	4E/	.	.	.
(>4BB-/	li-	.	4d\	-vo-	2D,</	-um	4B-/	li-
4C/)	.	.	4c\	.	.	.	4A/	.
!LO:TX:t=P:problem=kreska pseudotaktowa	!	!	!	!	!LO:TX:t=P:problem=kreska pseudotaktowa	!	!	!
(>2D/	.	.	4A\	.	2F/	et	4A/	.
.	.	.	4B-\	.	.	.	8G/L	.
.	.	.	.	.	.	.	8F/J	.
=47-	=47-	=47-	=47-	=47-	=47-	=47-	=47-	=47-
1C)	-vo-	.	2c\	.	2F/	li-	2G/	-vo-
!	!	!	!LO:TX:t=P:problem=kreska pseudotaktowa	!	!	!	!LO:TX:t=P:problem=kreska pseudotaktowa	!
.	.	.	2c\	-re	2E/	-vo-	2G/	-re
(2F\	-re	.	2A\	et	2F/	-re	4F/	et
.	.	.	.	.	.	.	4F/	li-
!LO:TX:t=P:problem=kreska pseudotaktowa	!	!	!	!	!	!	!	!
2FF/)	.	.	2A\	li-	2c\	li-	4F/	-vo-
.	.	.	.	.	.	.	4F/	-re
!	!	!	!	!	!	!	!LO:LB:g=original	!
=48-	=48-	=48-	=48-	=48-	=48-	=48-	=48-	=48-
2r	.	.	2A\	-vo-	2c\	-vo-	2F/	E-
!	!	!	!	!	!LO:TX:t=P:problem=kreska pseudotaktowa	!	!LO:TX:t=P:problem=kreska pseudotaktowa	!
1F	et	.	2A\	-re	2c\	-re	2F/	-jus
.	.	.	2A\	E-	(2A\	sa-	1r	.
!	!	!	!LO:TX:t=P:problem=kreska pseudotaktowa	!	!	!	!	!
2F\	li-	.	2A\	-jus	2c\)	.	.	.
=49-	=49-	=49-	=49-	=49-	=49-	=49-	=49-	=49-
2D\	-vo-	.	0r	.	2B-\	-na-	2r	.
!LO:TX:t=P:problem=kreska pseudotaktowa	!	!	!	!	!LO:TX:t=P:problem=kreska pseudotaktowa	!	!	!
2F\	-re	.	.	.	2A\	-ti	2c\	sa-
(2E\	E-	.	.	.	(>2G/	su-	2c\	-na-
!	!	!	!	!	!	!	!LO:TX:t=P:problem=kreska pseudotaktowa	!
2D\)	.	.	.	.	2F/)	.	2B-/	-ti
!	!	!	!	!	!LO:LB:g=original	!	!	!
=50-	=50-	=50-	=50-	=50-	=50-	=50-	=50-	=50-
2C,</	-jus	.	2rF	.	2G,</	-mus	1c	su-
!LO:TX:t=P:problem=kreska pseudotaktowa	!	!	!	!	!	!	!	!
2F\	sa-	.	2F/	sa-	2A/	sa-	.	.
!	!	!	!LO:LB:g=original	!	!	!	!	!
2C/	-na-	.	2F/	-na-	2A/	-na-	2c,<\	-mus
!	!	!	!	!	!LO:TX:t=P:problem=kreska pseudotaktowa	!	!	!
2C/	-ti	.	2E/	-ti	2G/	-ti	2c\	sa-
=51-	=51-	=51-	=51-	=51-	=51-	=51-	=51-	=51-
!LO:TX:t=P:problem=kreska pseudotaktowa	!	!	!LO:TX:t=P:problem=kreska pseudotaktowa	!	!	!	!	!
1BB-	sum-	.	1F	su-	1B-	su-	1d	-na-
2FF,</	-m(us)	.	2F,</	-mus,	1A	.	1c	.
2F\	su-	.	2F/	sa-	.	.	.	.
!LO:LB:g=original	!	!	!	!	!	!	!	!
=52-	=52-	=52-	=52-	=52-	=52-	=52-	=52-	=52-
!	!	!	!	!	!	!	!LO:TX:t=P:problem=kreska pseudotaktowa	!
4F\	.	.	1G	-na-	2G,</	-mus	1c	-ti
4E\	.	.	.	.	.	.	.	.
!	!	!	!	!	!LO:TX:t=P:problem=kreska pseudotaktowa	!	!	!
4E\	.	.	.	.	2c\	sa-	.	.
4C\	.	.	.	.	.	.	.	.
!	!	!	!LO:TX:t=P:problem=kreska pseudotaktowa	!	!	!	!	!
1D	.	.	1F	-ti	2c\	-na-	2r	.
.	.	.	.	.	2B-\	-ti	2f\	su-
=53-	=53-	=53-	=53-	=53-	=53-	=53-	=53-	=53-
1C	.	.	(2c\	su-	1A	su-	2f\	.
.	.	.	2A\)	.	.	.	2e\	.
0FFl;	-mus.	.	0Fl;	-mus.	0Al;	-mus.	0cl;	-mus.
==	==	==	==	==	==	==	==	==
*-	*-	*-	*-	*-	*-	*-	*-	*-
!!!system-decoration: [g1]
!!!RDF**kern: > = above
!!!RDF**kern: < = below
!!!RDF**kern: l = terminal long
!!!ENC: Andrzej Kubiczek
!!!END: 2021-04-08
!!!ENC: Berenika Jozajtis
!!!END: 2021-03-15
!!!YEC: Copyright 2022 Narodowy Instytut Fryderyka Chopina (https://polishscores.org)
!!!YEM: Licence CC BY 4.0 (https://creativecommons.org/licenses/by/4.0)
